X:026 
T:Buckley the Fiddler* (reel)
F:file ID: cre.5/026buck_f
B:CRE5.196 (gan ainm)
M:4/4
Q:180
R:reel
K:G
e| dBcA GABc|dBGB e3e|dBcA GABc|dBcA G3:|
A|Bdef gfgd|Bdef g3a|bgaf gefB|dBcA G3A|
Bdef gfgd|Bdef g3a|bgaf gefd|Bdef gfge|]
"last time" dBcA G4-|G8|]

%%%

